!!!COM: Scriabin, Alexander
!!!OTL@@FR: Impromptu à la Mazur en sol dièse mineur
!!!OTL@@EN: Impromptu à la Mazur in G# Minor
!!!OPR@@FR: 2 Impromptus à la Mazur
!!!OPR@@EN: 2 Impromptus à la Mazur
!!!OPS: 7
!!!ONM: 1
!!!ODT: 1891
!!!AGN: Impromptu
**kern	**kern	**dynam
*staff2	*staff1	*staff1/2
*Ipiano	*Ipiano	*
*clefF4	*clefG2	*
*k[f#c#g#d#a#]	*k[f#c#g#d#a#]	*
*g#:	*g#:	*
*M3/4	*M3/4	*
=1	=1	=1
4r	4dd#\	.
4A# 4c# 4f##X\	4.dd#\	.
4An 4c# 4f##\	.	.
.	8cc#\	.
=2	=2	=2
4r	8dd#\L	.
.	8ee	.
4G# 4d# 4g#\	8b#X	.
.	8cc#	.
4F# 4B#X\	8dd#	.
.	8anJ	.
=3	=3	=3
*	*^	*
4r	4rc	4cc#/	.
4E 4c#\	4an\	4.cc#/	.
4E 4c#\	4g#\	.	.
.	.	8b#X/	.
=4	=4	=4	=4
*^	*	*	*
4ryy	4rC	4rc	8cc#/L	.
.	.	.	8dd#	.
4E\	2c#/	4.g#\	8a#X	.
.	.	.	8b	.
4D#\	.	.	8cc#	.
.	.	8f##\	8f##XJ	.
*v	*v	*	*	*
=5	=5	=5	=5
4r	4rc	4g#/	.
4C# 4G#\	4e\	4.g#/	.
4C# 4G#\	4e\	.	.
.	.	8f##X/	.
=6	=6	=6	=6
4r	4rc	8g#/L	.
.	.	8a#J	.
4BB 4G#\	4e\	2b/	.
4BB 4G#\	4e\	.	.
=7	=7	=7	=7
*^	*	*	*
4ryy	4rC	4rc	8rcc	.
.	.	.	8dd#/	.
2AA# 2E\	4B/	2e 2g#\	8cc#/L	.
.	.	.	8b	.
.	4A#/	.	8cc#	.
.	.	.	8a#J	.
*v	*v	*	*	*
=8	=8	=8	=8
4r	4rc	2.dd#/	.
4D# 4A#\	4d# 4f##X\	.	.
4DD#/	4rc	.	.
*	*v	*v	*
=9	=9	=9
4r	4gg#\	.
*clefG2	*	*
4d# 4f# 4b#X/	4.gg#\	.
4dn 4f# 4b#/	.	.
.	8ff#\	.
=10	=10	=10
4r	8gg#\L	.
.	8aan	.
4c# 4g# 4cc#/	8ee#X	.
.	8ff#	.
4B 4e#X/	8gg#	.
.	8ddnJ	.
*clefF4	*	*
=11	=11	=11
*	*^	*
4r	4rc	4ff#/	.
4An 4f#\	4ddn\	4.ff#/	.
4A 4f#\	4cc#\	.	.
.	.	8ee#X/	.
=12	=12	=12	=12
*^	*	*	*
4ryy	4rC	4rc	8ff#/L	.
.	.	.	8gg#	.
4An\	2f#/	4.cc#\	8dd#X	.
.	.	.	8ee	.
4G#\	.	.	8ff#	.
.	.	8b#\	8b#XJ	.
*v	*v	*	*	*
=13	=13	=13	=13
4r	4rc	4cc#/	.
4F# 4c#\	4an\	4.cc#/	.
4F# 4c#\	4a\	.	.
.	.	8b#X/	.
=14	=14	=14	=14
4r	4rc	8cc#/L	.
.	.	8dd#J	.
4E 4c#\	4an\	2ee/	.
4E 4c#\	4a\	.	.
=15	=15	=15	=15
4r	4rc	8rdd	.
.	.	8dd#/	.
2D# 2A#X 2e\	2f##X\	8cc#/L	.
.	.	8b#X	.
.	.	8cc#	.
.	.	8f##XJ	.
=16	=16	=16	=16
4GG#/	4rc	2.g#/	.
4D# 4B\	4d#\	.	.
4FF#/	4rc	.	.
=17	=17	=17	=17
*	*	*^	*
4EE/	2.B\	4rc	4g#/	.
2Dn\	.	[2e\	4.g#/	.
.	.	.	8f#/	.
*	*	*v	*v	*
=18	=18	=18	=18
*^	*	*	*
4C#\	4rA	2An 2e\]	8g#/L	.
.	.	.	8an	.
4Cn\	4rA	.	8e	.
.	.	.	8f#	.
4BB\	4BB/	4A\	8g#	.
.	.	.	8d#XJ	.
=19	=19	=19	=19	=19
4AA#X\	8C#/L	4G#\	8e/L	.
.	8D#J	.	8d#	.
4AAn\	2E/	4F##X\	8c#	.
.	.	.	8B#X	.
4GG#\	.	4G#\	8c#	.
.	.	.	8d#J	.
=20	=20	=20	=20	=20
4GGn\	2.E/	4An 4c#\	12e/L	.
.	.	.	12d#	.
.	.	.	12eJ	.
2FF#\	.	2A#X\	8g#/L	.
.	.	.	8gn	.
.	.	.	8cc#	.
.	.	.	8f#J	.
*v	*v	*	*	*
=21	=21	=21	=21
*	*	*^	*
4BBB 4BB/	2.f#\	4rcc	4dd#/	.
2An\	.	[2b\	4.dd#/	.
.	.	.	8cc#/	.
*	*	*v	*v	*
=22	=22	=22	=22
*^	*	*	*
4G#\	4rd	2e 2b\]	8dd#/L	.
.	.	.	8ee	.
4Gn\	4rd	.	8b	.
.	.	.	8cc#	.
4F#\	4F#/	4e\	8dd#	.
.	.	.	8a#XJ	.
=23	=23	=23	=23	=23
4E#X\	8G#/L	4d#\	8b/L	.
.	8A#J	.	8a#	.
4En\	2B/	4c##X\	8g#	.
.	.	.	8f##X	.
4D#\	.	4d#\	8g#	.
.	.	.	8a#J	.
=24	=24	=24	=24	=24
4Dn\	2.B/	4e 4g#\	12b/L	.
.	.	.	12a#	.
.	.	.	12bJ	.
2C#\	.	2e#X\	8dd#/L	.
.	.	.	8ddn	.
.	.	.	8gg#	.
.	.	.	8cc#J	.
*v	*v	*	*	*
=25	=25	=25	=25
8.Gn\L	2.en 2.b\	8cc#/L	.
.	.	8b#X	.
16C#Jk	.	.	.
2G\	.	8cc#	.
.	.	8dd#	.
.	.	8ee	.
.	.	8dd#J	.
=26	=26	=26	=26
2.F#\	4e 4a#\	8ff#/L	.
.	.	8dd#	.
.	4e 4an\	8cc#	.
.	.	8dd#	.
.	4e 4a\	8cc#	.
.	.	8bJ	.
=27	=27	=27	=27
8.Fn\L	2.dn 2.an\	8b/L	.
.	.	8a#X	.
16BBJk	.	.	.
2F\	.	8b	.
.	.	8cc#	.
.	.	8ddn	.
.	.	8cc#J	.
=28	=28	=28	=28
2.E\	2.dn 2.g#X\	8ee/L	.
.	.	8cc#	.
.	.	8cc#	.
.	.	8b	.
.	.	8b	.
.	.	8b#XJ	.
*	*v	*v	*
=29	=29	=29
8AAAn/L	8anL 8cc#/	.
8AAn	8c#J 8a	.
8E	4.c# 4.a/	.
8AA	.	.
8An	.	.
8EJ	8g# 8cc#/	.
=30	=30	=30
8e/L	8g#L 8cc#/	.
8An	8c#J 8g#	.
8E	4.c# 4.g#/	.
8AAn	.	.
8EE	.	.
8DDD#J	8f##X 8cc#/	.
=31	=31	=31
8GG##X/L	8f##XL 8cc#/	.
8AA#X	8c#J 8f##	.
8E	4c# 4f##/	.
8D#	.	.
8G##X	4r	.
8A#J	.	.
=32	=32	=32
8e\L	2.r	.
8d#	.	.
8f#	.	.
8e	.	.
8d#	.	.
8c##XJ	.	.
=33	=33	=33
*^	*	*
4rAA	2.c#/	4dd#\	.
4A# 4f##X\	.	4.dd#\	.
4An 4f##\	.	.	.
.	.	8cc#\	.
=34	=34	=34	=34
4rAA	8B#X/L	8dd#\L	.
.	8c#J	8ee	.
4G# 4g#\	4d#/	8b#X	.
.	.	8cc#	.
4F# 4B#\	4d#/	8dd#	.
.	.	8anJ	.
=35	=35	=35	=35
*	*	*^	*
4rAA	2.e/	4rc	4cc#/	.
4E 4c#\	.	4an\	4.cc#/	.
4E 4c#\	.	4g#\	.	.
.	.	.	8b#X/	.
=36	=36	=36	=36	=36
4rAA	8e/L	4rc	8cc#/L	.
.	8d#J	.	8dd#	.
4E\	4c#/	4.g#\	8a#X	.
.	.	.	8b	.
4D#\	4c#/	.	8cc#	.
.	.	8f##\	8f##XJ	.
=37	=37	=37	=37	=37
4rAA	2c#/	4rc	4g#/	.
4C# 4G#\	.	4e\	4.g#/	.
4C#\	8B/L	4e\	.	.
.	8A#J	.	8f##X/	.
=38	=38	=38	=38	=38
4rAA	8G#/L	4rc	8g#/L	.
.	8F##XJ	.	8a#J	.
4BB\	2G#/	4e\	2b/	.
4BB\	.	4e\	.	.
=39	=39	=39	=39	=39
4ryy	4rC	4rc	8rcc	.
.	.	.	8dd#/	.
2AA# 2E\	4B/	2e 2g#\	8cc#/L	.
.	.	.	8b	.
.	4A#/	.	8cc#	.
.	.	.	8a#J	.
*v	*v	*	*	*
=40	=40	=40	=40
4r	4rc	2.dd#/	.
4D# 4A#\	4d# 4f##X\	.	.
4DD#/	4rc	.	.
*	*v	*v	*
*clefG2	*	*
=41	=41	=41
*^	*	*
4rG	2.f#/	4gg#\	.
4d# 4b#X\	.	4.gg#\	.
4dn 4b#\	.	.	.
.	.	8ff#\	.
=42	=42	=42	=42
4rG	8e#X/L	8gg#\L	.
.	8f#J	8aan	.
4c# 4cc#\	4g#/	8ee#X	.
.	.	8ff#	.
4B 4e#\	4g#/	8gg#	.
.	.	8ddnJ	.
=43	=43	=43	=43
*	*	*^	*
4rB	2.an/	4re	4ff#/	.
4An 4f#\	.	4ddn\	4.ff#/	.
4A 4f#\	.	4cc#\	.	.
.	.	.	8ee#X/	.
=44	=44	=44	=44	=44
4rc	8an/L	4rf	8ff#/L	.
.	8g#J	.	8gg#	.
4An\	4f#/	4.cc#\	8dd#X	.
.	.	.	8ee	.
4A\	4f#/	.	8ff#	.
.	.	8b#\	8b#XJ	.
=45	=45	=45	=45	=45
4rA	2f#/	4rc	4cc#/	.
4F# 4c#\	.	4an\	4.cc#/	.
4F#\	8e/L	4a\	.	.
.	8d#J	.	8b#X/	.
=46	=46	=46	=46	=46
4rC	8c#/L	4rc	8cc#/L	.
.	8B#XJ	.	8dd#J	.
4E\	2c#/	4an\	2ee/	.
4E\	.	4a\	.	.
*v	*v	*	*	*
*clefF4	*	*	*
=47	=47	=47	=47
4rC	4rc	8rcc	.
.	.	8dd#/	.
2D# 2A#X 2e\	2f##X\	8cc#/L	.
.	.	8b#X	.
.	.	8cc#	.
.	.	8f##XJ	.
=48	=48	=48	=48
4E 4G#\	4c#\	2g#/	.
2CC# 2GG# 2E/	4c#\	.	.
.	4rA	8f#/L	.
.	.	8eJ	.
*	*v	*v	*
=49	=49	=49
*^	*	*
4GGG# 4GG#\	4D#/	2.c# 2.f##X 2.b/	.
4ryy	4.D#/	.	.
4ryy	.	.	.
.	8C##X/	.	.
*v	*v	*	*
=50	=50	=50
*	*^	*
8D#/L	4g#\	4.B 4.b/	.
8E	.	.	.
8GG#	4.e\	.	.
8AA#	.	8A# 8a#/	.
8BB	.	4G# 4g#/	.
8BBJ	8d#\	.	.
=51	=51	=51	=51
2BB/	2G# 2c##X\	8g#/L	.
.	.	8f#J	.
.	.	4e/	.
[4BB/	4G#\	4d#/	.
*	*v	*v	*
=52	=52	=52
8BB/L]	4E 4G# 4c##X/	.
8AA#	.	.
8BB	4D# 4G# 4d#/	.
8DD#	.	.
8F#	4G# 4c##X 4g#/	.
8EJ	.	.
=53	=53	=53
*^	*	*
4GGG# 4GG#\	4D#/	2.c# 2.f##X 2.b/	.
4ryy	4.D#/	.	.
4ryy	.	.	.
.	8C##X/	.	.
*v	*v	*	*
=54	=54	=54
*	*^	*
8D#/L	4g#\	4.B 4.b/	.
8E	.	.	.
8GG#	4.e\	.	.
8AA#	.	8A# 8a#/	.
8BB	.	4G# 4g#/	.
8BBJ	8d#\	.	.
=55	=55	=55	=55
2EE 2BB/	2G# 2c##X\	8g#/L	.
.	.	8f#J	.
.	.	4e/	.
[4EE#X [4BB/	[4G#\	[4d#X/	.
=56	=56	=56	=56
4EE#] 4BB] 4D# 4G# 4d#\	4G#\]	4d#/]	.
4r	4ryy	8f##X/L	.
.	.	8g#	.
4r	4ryy	8a#	.
.	.	8bJ	.
=57	=57	=57	=57
2EE#X 2BB 2Gn/	2dn 2gn\	8ddn/L	.
.	.	8cc#J	.
.	.	4b/	.
4FF# 4BB 4An/	4ryy	[4d#X 4b [4dd#X/	.
=58	=58	=58	=58
2.GG# 2.BB 2.B\	2.b\	4d#] 4dd#/]	.
.	.	4f# 4ff#/	.
.	.	4e 4ee/	.
*	*v	*v	*
=59	=59	=59
2GGn 2E 2B\	4b 4ee 4bb\	.
.	4e 4b 4ee/	.
4FF#/	4r	.
=60	=60	=60
16%3GGn/	2.E 2.B 2.e/	.
16%3BB/	.	.
16%3AAn/	.	.
[16%3GG/	.	.
=61	=61	=61
2.GGn] 2.C# 2.B/	4b 4ee#X 4bb\	.
.	4e#X 4b 4ee#/	.
.	4c#/	.
=62	=62	=62
*	*^	*
2GGn/	2D#X 2B\	4c##X/	.
.	.	4c#X/	.
[4FF#/	4En 4A#\	4c##X/	.
=63	=63	=63	=63
*	*	*^	*
[2.BBB 2.FF#/_	4D#\	[2.A#\	4d#/	.
.	4E\	.	4c#/	.
.	4D#\	.	4d#/	.
=64	=64	=64	=64	=64
2.BBB_ 2.FF#/_	2C#\	2.A#\]	2e/	.
.	4D#\	.	4d#/	.
=65	=65	=65	=65	=65
*^	*	*	*	*
4ryy	4.BBB] 4.FF#/]	4D#\	2.A#\	4f#/	.
8ryy	.	4E\	.	4B#X/	.
4.FF#\	4.F#/	.	.	.	.
.	.	4rE	.	4c#/	.
*	*	*	*v	*v	*
=66	=66	=66	=66	=66
2.E\	2.F#/	4.An\	16%3d#/	.
.	.	.	16%3c#/	.
.	.	4.A#X\	16%3g#/	.
.	.	.	16%3gn/	.
=67	=67	=67	=67	=67
4.D#\	4.F#/	2.B 2.f#\	4f#/	.
.	.	.	4b/	.
4.Dn\	[4.G#/	.	.	.
.	.	.	4a#/	.
=68	=68	=68	=68	=68
*	*	*	*^	*
[2.C#\	4.G#/]	2.B\	4.f#\	4cc#/	.
.	.	.	.	4g#/	.
.	4.c#/	.	4.e#X\	.	.
.	.	.	.	4gn/	.
*	*	*	*v	*v	*
=69	=69	=69	=69	=69
16%3C#\]	2.rB	2.A# 2.f#\	4f#/	.
16%3BB#X\	.	.	.	.
.	.	.	4e/	.
16%3C#\	.	.	.	.
.	.	.	4d#/	.
16%3D#\	.	.	.	.
*v	*v	*	*	*
=70	=70	=70	=70
2.FF# 2.E/	2.A#\	4c#/	.
.	.	4B#X/	.
.	.	4c#/	.
=71	=71	=71	=71
*	*	*^	*
4r	4ryy	4r	4ryy	.
[2CC# [2GG#/	4F#\	2B#X\	4d#/	.
.	4E\	.	4e/	.
=72	=72	=72	=72	=72
2.CC#_ 2.GG#/_	2D#\	2.B#X\	2f#/	.
.	4E\	.	4e/	.
=73	=73	=73	=73	=73
*^	*	*	*	*
4ryy	4.CC#] 4.GG#/]	4E\	2.B#X\	4g#/	.
8ryy	.	4F#\	.	4c##X/	.
4.GG#\	4.G#/	.	.	.	.
.	.	4rF	.	4d#/	.
*	*	*	*v	*v	*
=74	=74	=74	=74	=74
2.F#\	2.G#/	2.B#X\	16%3e/	.
.	.	.	16%3d#/	.
.	.	.	16%3an/	.
.	.	.	16%3g#/	.
=75	=75	=75	=75	=75
2.E\	4.G#/	2.c# 2.g#\	4g#/	.
.	.	.	4ee/	.
.	4.An/	.	.	.
.	.	.	4dd#/	.
=76	=76	=76	=76	=76
2.E\	2.A#X/	[2.f#\	4ff#/	.
.	.	.	4cc#/	.
.	.	.	4ccn/	.
=77	=77	=77	=77	=77
4D#\	4B/	4f#\]	4b/	.
4BBB\	4ryy	[2B [2d#\	4a#X/	.
4FF#\	4ryy	.	4g#/	.
=78	=78	=78	=78	=78
2FF#\	4E#X/	2B] 2d#\]	4gn/	.
.	4F#/	.	4f#/	.
[4BB\	[4F#/	[4B\	[4d#/	.
=79	=79	=79	=79	=79
*	*	*	*^	*
4BB\]	4F#/]	4ryy	4B\]	4d#/]	.
[2FF#\	4F#/	[2An\	[2c#\	6c#/	.
.	.	.	.	6d#/	.
.	4C#/	.	.	.	.
.	.	.	.	6e/	.
=80	=80	=80	=80	=80	=80
2.FF#\_	4E/	2.A\_	2.c#\_	4g#/	.
.	4.D#/	.	.	4.f#/	.
.	8C#/	.	.	8e/	.
=81	=81	=81	=81	=81	=81
4FF#\]	[2.C#/	4A\]	2.c#\]	2e/	.
4CC#\	.	4G#\	.	.	.
[4FF#\	.	4An\	.	4d#/	.
*	*	*	*v	*v	*
*	*	*v	*v	*
=82	=82	=82	=82
4FF#\]	4C#/]	4cc#\	.
4ryy	4r	4d#/	.
4ryy	4r	[4An/	.
=83	=83	=83	=83
*	*	*^	*
4ryy	4r	4ryy	4A/]	.
[2CC#\	4C#/	[2E [2G#\	6G#/	.
.	.	.	6A#X/	.
.	4GG#/	.	.	.
.	.	.	6B/	.
=84	=84	=84	=84	=84
2.CC#\_	4BB/	2.E] 2.G#\]	4d#/	.
.	4.AA#/	.	4.c#/	.
.	8GG#/	.	8B/	.
=85	=85	=85	=85	=85
*	*	*	*^	*
4CC#\]	2.GG#/	4E\	2.G#\	2B/	.
4GGG#\	.	4D#\	.	.	.
4CC#\	.	4E\	.	4d#/	.
*v	*v	*	*	*	*
*	*	*v	*v	*
=86	=86	=86	=86
2.FFF# 2.FF#/	2.E 2.A#\	4f#/	.
.	.	4d#/	.
.	.	4F#/	.
=87	=87	=87	=87
*	*	*^	*
[2.BBB [2.FF#/	4D#\	[2.A#\	4d#/	.
.	4E\	.	4c#/	.
.	4D#\	.	4d#/	.
=88	=88	=88	=88	=88
2.BBB] 2.FF#/]	2C#\	2.A#\]	2e/	.
.	4D#\	.	4d#/	.
=89	=89	=89	=89	=89
[2.BBB 2.FF# 2.F#/	4D#\	2.A#\	4f#/	.
.	4E\	.	4B#X/	.
.	4rE	.	4c#/	.
*	*	*v	*v	*
=90	=90	=90	=90
2.BBB] 2.FF# 2.E/	4.An\	16%3d#/	.
.	.	16%3c#/	.
.	4.A#X\	16%3g#/	.
.	.	16%3gn/	.
=91	=91	=91	=91
2.BBB 2.FF# 2.D#/	2.B\	4f#/	.
.	.	4cc#/	.
.	.	4ccn/	.
=92	=92	=92	=92
*^	*	*	*
2.BB\	2.An/	2.d#\	4ff#/	.
.	.	.	4b/	.
.	.	.	4a#/	.
*v	*v	*	*	*
=93	=93	=93	=93
*	*	*^	*
[2.EE [2.BB/	4F#\	2.d#\	4an/	.
.	4.G#\	.	4.g#/	.
.	8A#\	.	8f##X/	.
=94	=94	=94	=94	=94
2.EE] 2.BB/]	2A#\	2.d#\	2f##X/	.
.	4G#\	.	4g#/	.
*	*	*v	*v	*
=95	=95	=95	=95
2.E 2.B\	2.d#\	4rcc	.
.	.	4g#/	.
.	.	4a#/	.
=96	=96	=96	=96
2.E 2.B\	2.c##X\	4b/	.
.	.	4a#/	.
.	.	4g#/	.
=97	=97	=97	=97
[2.D# [2.B\	2.d#\	4rcc	.
.	.	4cc##X/	.
.	.	4dd#/	.
*	*v	*v	*
=98	=98	=98
2.D#] 2.B] 2.g#\	4ff#\	.
.	4ee\	.
.	4dd#\	.
=99	=99	=99
[2.B [2.c# [2.g#\	4cc#\	.
.	4ccc#\	.
.	4ddd#\	.
=100	=100	=100
2.B_ 2.c#_ 2.g#\_	4ccc#\	.
.	4gg#\	.
.	4aa#\	.
=101	=101	=101
4B] 4c#] 4g#\]	16%3gg#\	.
.	16%3b#X\	.
4r	.	.
.	16%3cc#\	.
4r	.	.
.	16%3dd#\	.
=102	=102	=102
2.r	2ff#\	.
.	4ee\	.
=103	=103	=103
4r	4dd#\	.
4A# 4c# 4f##X\	4.dd#\	.
4An 4c# 4f##\	.	.
.	8cc#\	.
=104	=104	=104
4r	8dd#\L	.
.	8ee	.
4G# 4d# 4g#\	8b#X	.
.	8cc#	.
4F# 4B#X\	8dd#	.
.	8anJ	.
=105	=105	=105
*	*^	*
4r	4rc	4cc#/	.
4E 4c#\	4an\	4.cc#/	.
4E 4c#\	4g#\	.	.
.	.	8b#X/	.
=106	=106	=106	=106
*^	*	*	*
4ryy	4r	4rc	8cc#/L	.
.	.	.	8dd#	.
4E\	2c#/	4.g#\	8a#X	.
.	.	.	8b	.
4D#\	.	.	8cc#	.
.	.	8f##\	8f##XJ	.
*v	*v	*	*	*
=107	=107	=107	=107
4r	4rc	4g#/	.
4C# 4G#\	4e\	4.g#/	.
4C# 4G#\	4e\	.	.
.	.	8f##X/	.
=108	=108	=108	=108
4r	4rc	8g#/L	.
.	.	8a#J	.
4BB 4G#\	4e\	2b/	.
4BB 4G#\	4e\	.	.
=109	=109	=109	=109
*^	*	*	*
4ryy	4r	4rc	8rcc	.
.	.	.	8dd#/	.
2AA# 2E\	4B/	2e 2g#\	8cc#/L	.
.	.	.	8b	.
.	4A#/	.	8cc#	.
.	.	.	8a#J	.
*v	*v	*	*	*
=110	=110	=110	=110
4r	4rc	2.dd#/	.
4D# 4A#\	4d# 4f##X\	.	.
4DD#/	4rc	.	.
*	*v	*v	*
*clefG2	*	*
=111	=111	=111
4r	4gg#\	.
4d# 4f# 4b#X/	4.gg#\	.
4dn 4f# 4b#/	.	.
.	8ff#\	.
=112	=112	=112
4r	8gg#\L	.
.	8aan	.
4c# 4g# 4cc#/	8ee#X	.
.	8ff#	.
4B 4e#X/	8gg#	.
.	8ddnJ	.
=113	=113	=113
*	*^	*
4r	4rf	4ff#/	.
4An 4f#/	4ddn\	4.ff#/	.
4A 4f#/	4cc#\	.	.
.	.	8ee#X/	.
*clefF4	*	*	*
=114	=114	=114	=114
*^	*	*	*
4ryy	4r	4rf	8ff#/L	.
.	.	.	8gg#	.
4An\	2f#/	4.cc#\	8dd#X	.
.	.	.	8ee	.
4G#\	.	.	8ff#	.
.	.	8b#\	8b#XJ	.
*v	*v	*	*	*
=115	=115	=115	=115
4r	4rc	4cc#/	.
4F# 4c#\	4an\	4.cc#/	.
4F# 4c#\	4a\	.	.
.	.	8b#X/	.
=116	=116	=116	=116
4r	4rc	8cc#/L	.
.	.	8dd#J	.
4E 4c#\	4an\	2ee/	.
4E 4c#\	4a\	.	.
=117	=117	=117	=117
4r	4rc	8rcc	.
.	.	8dd#/	.
.	.	16qqcc#/LL	.
.	.	16qqdd#JJ	.
2D# 2A#X 2e\	2f##X\	8cc#/L	.
.	.	8b#X	.
.	.	8cc#	.
.	.	8f##XJ	.
=118	=118	=118	=118
4GG#/	4rc	2g#/	.
4D# 4B\	4d#\	.	.
4FF#/	4rc	4rcc	.
=119	=119	=119	=119
*	*	*^	*
4EE/	2.B\	4re	4g#/	.
2Dn\	.	[2e\	4.g#/	.
.	.	.	8f#/	.
*	*	*v	*v	*
=120	=120	=120	=120
*^	*	*	*
4C#\	4rA	2An 2e\]	8g#/L	.
.	.	.	8an	.
4Cn\	4rA	.	8e	.
.	.	.	8f#	.
4BB\	4BB/	4A\	8g#	.
.	.	.	8d#XJ	.
=121	=121	=121	=121	=121
4AA#X\	8C#/L	4G#\	8e/L	.
.	8D#J	.	8d#	.
4AAn\	2E/	4F##X\	8c#	.
.	.	.	8B#X	.
4GG#\	.	4G#\	8c#	.
.	.	.	8d#J	.
=122	=122	=122	=122	=122
4GGn\	2.E/	4An 4c#\	12e/L	.
.	.	.	12d#	.
.	.	.	12eJ	.
2FF#/	.	2A#X\	8g#/L	.
.	.	.	8gn	.
.	.	.	8cc#	.
.	.	.	8f#J	.
*v	*v	*	*	*
=123	=123	=123	=123
*	*	*^	*
4BBB 4BB/	2.f#\	4rcc	4dd#/	.
2An\	.	[2b\	4.dd#/	.
.	.	.	8cc#/	.
*	*	*v	*v	*
=124	=124	=124	=124
*^	*	*	*
4G#\	4rd	2e 2b\]	8dd#/L	.
.	.	.	8ee	.
4Gn\	4rd	.	8b	.
.	.	.	8cc#	.
4F#\	4F#/	4e\	8dd#	.
.	.	.	8a#XJ	.
=125	=125	=125	=125	=125
4E#X\	8G#/L	4d#\	8b/L	.
.	8A#J	.	8a#	.
4En\	2B/	4c##X\	8g#	.
.	.	.	8f##X	.
4D#\	.	4d#\	8g#	.
.	.	.	8a#J	.
=126	=126	=126	=126	=126
4Dn\	2.B/	4e 4g#\	12b/L	.
.	.	.	12a#	.
.	.	.	12bJ	.
2C#\	.	2e#X\	8dd#/L	.
.	.	.	8ddn	.
.	.	.	8gg#	.
.	.	.	8cc#J	.
*v	*v	*	*	*
=127	=127	=127	=127
8.Gn\L	2.en 2.b\	8cc#/L	.
.	.	8b#X	.
16C#Jk	.	.	.
2G\	.	8cc#	.
.	.	8dd#	.
.	.	8ee	.
.	.	8dd#J	.
=128	=128	=128	=128
2.F#\	4e 4a#\	8ff#/L	.
.	.	8dd#	.
.	4e 4an\	8cc#	.
.	.	8dd#	.
.	4e 4a\	8cc#	.
.	.	8bJ	.
=129	=129	=129	=129
8.Fn\L	2.dn 2.an\	8b/L	.
.	.	8a#X	.
16BBJk	.	.	.
2F\	.	8b	.
.	.	8cc#	.
.	.	8ddn	.
.	.	8cc#J	.
=130	=130	=130	=130
2.E\	2.dn 2.g#X\	8ee/L	.
.	.	8cc#	.
.	.	8cc#	.
.	.	8b	.
.	.	8b	.
.	.	8b#XJ	.
*	*v	*v	*
=131	=131	=131
8AAAn/L	8anL 8cc#/	.
8AAn	8c#J 8a	.
8E	4.c# 4.a/	.
8AA	.	.
8An	.	.
8EJ	8g# 8cc#/	.
=132	=132	=132
8e/L	8g#L 8cc#/	.
8An	8c#J 8g#	.
8E	4.c# 4.g#/	.
8AAn	.	.
8EE	.	.
8DDD#J	8f##X 8cc#/	.
=133	=133	=133
8GG##X\L	8f##XL 8cc#/	.
8AA#X	8c#J 8f##	.
8E	4c# 4f##/	.
8D#	.	.
8G##X	4r	.
8A#J	.	.
=134	=134	=134
8e\L	2.r	.
8d#	.	.
8f#	.	.
8e	.	.
8d#	.	.
8c##XJ	.	.
=135	=135	=135
*^	*	*
4rAA	2.c#/	4dd#\	.
4A# 4f##X\	.	4.dd#\	.
4An 4f##\	.	.	.
.	.	8cc#\	.
=136	=136	=136	=136
4rAA	8B#X/L	8dd#\L	.
.	8c#J	8ee	.
4G# 4g#\	4d#/	8b#X	.
.	.	8cc#	.
4F# 4B#\	4d#/	8dd#	.
.	.	8anJ	.
=137	=137	=137	=137
*	*	*^	*
4rAA	2.e/	4rc	4cc#/	.
4E 4c#\	.	4an\	4.cc#/	.
4E 4c#\	.	4g#\	.	.
.	.	.	8b#X/	.
=138	=138	=138	=138	=138
4rAA	8e/L	4rc	8cc#/L	.
.	8d#J	.	8dd#	.
4E\	2c#/	4.g#\	8a#X	.
.	.	.	8b	.
4D#\	.	.	8cc#	.
.	.	8f##\	8f##XJ	.
=139	=139	=139	=139	=139
4rAA	2c#/	4rc	4g#/	.
4C# 4G#\	.	4e\	4.g#/	.
4C#\	8B/L	4e\	.	.
.	8A#J	.	8f##X/	.
=140	=140	=140	=140	=140
4rAA	8G#/L	4rc	8g#/L	.
.	8F##XJ	.	8a#J	.
4BB\	2G#/	4e\	2b/	.
4BB\	.	4e\	.	.
=141	=141	=141	=141	=141
4ryy	4r	4rc	8rcc	.
.	.	.	8dd#/	.
2AA# 2E\	4B/	2e 2g#\	8cc#/L	.
.	.	.	8b	.
.	4A#/	.	8cc#	.
.	.	.	8a#J	.
*v	*v	*	*	*
=142	=142	=142	=142
4r	4rc	2.dd#/	.
4D# 4A#\	4d# 4f##X\	.	.
4DD#/	4rc	.	.
*	*v	*v	*
*clefG2	*	*
=143	=143	=143
*^	*	*
4rA	2.f#/	4gg#\	.
4d# 4b#X\	.	4.gg#\	.
4dn 4b#\	.	.	.
.	.	8ff#\	.
=144	=144	=144	=144
4rA	8e#X/L	8gg#\L	.
.	8f#J	8aan	.
4c# 4cc#\	4g#/	8ee#X	.
.	.	8ff#	.
4B 4e#\	4g#/	8gg#	.
.	.	8ddnJ	.
=145	=145	=145	=145
*	*	*^	*
4rA	2.an/	4rf	4ff#/	.
4An 4f#\	.	4ddn\	4.ff#/	.
4A 4f#\	.	4cc#\	.	.
.	.	.	8ee#X/	.
=146	=146	=146	=146	=146
4rA	8an/L	4rf	8ff#/L	.
.	8g#J	.	8gg#	.
4An\	4f#/	4.cc#\	8dd#X	.
.	.	.	8ee	.
4G#\	4f#/	.	8ff#	.
.	.	8b#\	8b#XJ	.
=147	=147	=147	=147	=147
4rA	2f#/	4rd	4cc#/	.
4F# 4c#\	.	4an\	4.cc#/	.
4F#\	8e/L	4a\	.	.
.	8d#J	.	8b#X/	.
=148	=148	=148	=148	=148
4rC	8c#/L	4rd	8cc#/L	.
.	8B#XJ	.	8dd#J	.
4E\	2c#/	4an\	2ee/	.
4E\	.	4a\	.	.
*v	*v	*	*	*
*clefF4	*	*	*
=149	=149	=149	=149
4r	4rc	8rcc	.
.	.	8dd#/	.
2D# 2A#X 2e\	2f##X\	8cc#/L	.
.	.	8b#X	.
.	.	8cc#	.
.	.	8f##XJ	.
=150	=150	=150	=150
*^	*	*	*
4ryy	4r	4rA	2.g#/	.
4C#\	[2B/	4e\	.	.
4D#\	.	4d#\	.	.
=151	=151	=151	=151	=151
2.E\	4B/]	4c#\	8rdd	.
.	.	.	8dd#/	.
.	2A# 2c#/	2f##X\	8cc#/L	.
.	.	.	8b#X	.
.	.	.	8cc#	.
.	.	.	8f##XJ	.
=152	=152	=152	=152	=152
4ryy	4r	4rA	2.g#/	.
4C#\	[2B/	4e\	.	.
4D#\	.	4d#\	.	.
=153	=153	=153	=153	=153
2.E\	4B/]	4c#\	8rdd	.
.	.	.	8dd#/	.
.	2A# 2c#/	2f##X\	8cc#/L	.
.	.	.	8b#X	.
.	.	.	8cc#	.
.	.	.	8f##XJ	.
*v	*v	*	*	*
*	*v	*v	*
=154	=154	=154
4CC#/	8r	.
.	8a#/	.
2GG# 2E 2G#/	8g#/L	.
.	8f##X	.
.	8g#	.
.	8c#J	.
=155	=155	=155
2.r	8d#/L	.
.	8f#	.
.	8e	.
.	8c#	.
.	8G#	.
.	8G#J	.
=156	=156	=156
2.r	2.G#/	.
=157	=157	=157
*^	*^	*
[2.EE\	[2.BB/	[2.E [2.G#\	2.G#/	.
=158	=158	=158	=158	=158
2.EE\]	2.BB/]	2.E] 2.G#\]	4G#/	.
.	.	.	4A#/	.
.	.	.	4B/	.
=159	=159	=159	=159	=159
2.CC#\	4BB/	2.E 2.G#\	4d#/	.
.	4AA#/	.	4c#/	.
.	4GG#/	.	4B/	.
*v	*v	*	*	*
=160	=160	=160	=160
[2.GGG# [2.GG#/	[2.D# [2.B\	[2.g#/	.
=161	=161	=161	=161
2.GGG#_ 2.GG#/_	2.D#_ 2.B\_	4.g#/]	.
.	.	4.d#/	.
=162	=162	=162	=162
2.GGG#_ 2.GG#/_	2.D#_ 2.B\_	2.d#/	.
=163	=163	=163	=163
2.GGG#] 2.GG#/]	2.D#] 2.B\]	2.d#/	.
*	*v	*v	*
==	==	==
*-	*-	*-
!!!system-decoration: {(*)}
!!!ENC: Bryan Jacob Bell
!!!END: November 2021 to April 2022
!!!PED: P. Jurgenson
